dist/svg/caret-square-down.svg

<!-- Generated by Trend Micro Style Portal -->
<svg version="1.1" xmlns="http://www.w3.org/2000/svg" width="16" height="16" viewBox="0 0 16 16">
  <title>caret-square-down</title>
  <path fill="rgb(34,34,34)" d="M4 6h8l-4 5zM14 3h-12v10h12v-10zM14 2c0.552 0 1 0.448 1 1v0 10c0 0.552-0.448 1-1 1v0h-12c-0.552 0-1-0.448-1-1v0-10c0-0.552 0.448-1 1-1v0z"></path>
</svg>

<svg width="16" height="16" viewBox="0 0 16 16" fill="rgb(34, 34, 34)" xmlns="http://www.w3.org/2000/svg"><title>caret-square-down</title><path d="M4 6H12L8 11L4 6ZM14 3H2V13H14V3ZM14 2C14.552 2 15 2.448 15 3V13C15 13.552 14.552 14 14 14H2C1.448 14 1 13.552 1 13V3C1 2.448 1.448 2 2 2H14Z" fill="rgb(34, 34, 34)" fill-opacity="1.00"/></svg>
